X:413
M:C|
L:1/8
K:A
e|a2cA c/d/e cA|d2cA B=GGB|a2cA c/d/e cA|dfed cAAg|
a2cA c/d/e cA|d2cA B=GGB|fgae fdcA|ceBe cAA||

